apps/cave/public/assets/sidebar/marketplace.svg

<svg width="16" height="16" viewBox="0 0 16 16" fill="none" xmlns="http://www.w3.org/2000/svg">
<path d="M2.72871 0L0 0.0140598L0.00781417 1.61375L1.66442 1.60594L4.30092 7.92814L3.3429 9.46065C3.02283 9.97255 3.00628 10.6192 3.29914 11.1463C3.59201 11.6734 4.14769 12.0008 4.75102 12.0008H14.4V10.4011H4.75102L4.69944 10.3074L5.64027 8.80141H11.6165C12.1983 8.80141 12.7336 8.48523 13.0153 7.97813L15.8987 2.79164C16.0371 2.54369 16.0334 2.24124 15.8893 1.99649C15.7453 1.75253 15.4818 1.60281 15.1986 1.60281H3.3976L2.72871 0ZM4.06337 3.2025H13.8389L11.6165 7.20172H5.73091L4.06337 3.2025ZM4.7979 12.8006C4.37346 12.8006 3.96641 12.9692 3.66629 13.2692C3.36617 13.5692 3.19756 13.976 3.19756 14.4003C3.19756 14.8246 3.36617 15.2315 3.66629 15.5315C3.96641 15.8315 4.37346 16 4.7979 16C5.22234 16 5.62939 15.8315 5.92951 15.5315C6.22963 15.2315 6.39824 14.8246 6.39824 14.4003C6.39824 13.976 6.22963 13.5692 5.92951 13.2692C5.62939 12.9692 5.22234 12.8006 4.7979 12.8006ZM12.7996 12.8006C12.3752 12.8006 11.9681 12.9692 11.668 13.2692C11.3679 13.5692 11.1993 13.976 11.1993 14.4003C11.1993 14.8246 11.3679 15.2315 11.668 15.5315C11.9681 15.8315 12.3752 16 12.7996 16C13.224 16 13.6311 15.8315 13.9312 15.5315C14.2313 15.2315 14.4 14.8246 14.4 14.4003C14.4 13.976 14.2313 13.5692 13.9312 13.2692C13.6311 12.9692 13.224 12.8006 12.7996 12.8006Z" fill="#5F7A99"/>
</svg>

<svg xmlns="http://www.w3.org/2000/svg" fill="none" viewBox="0 -2 20 20">
  <path fill="#5F7A99" d="M2.729 0 0 .014l.008 1.6 1.656-.008 2.637 6.322-.958 1.533A1.66 1.66 0 0 0 4.75 12h9.65v-1.6H4.751l-.052-.094L5.64 8.8h5.977a1.6 1.6 0 0 0 1.398-.823L15.9 2.792a.8.8 0 0 0-.7-1.19H3.398L2.728 0Zm1.334 3.203h9.776l-2.223 3.999H5.732l-1.668-4Zm.735 9.598a1.6 1.6 0 1 0 0 3.201 1.6 1.6 0 0 0 0-3.201Zm8.002 0a1.6 1.6 0 1 0 0 3.201 1.6 1.6 0 0 0 0-3.201Z"/>
</svg>
